!!!OTL: Der Vorreihen
!!!ARE: Europa, Mitteleuropa, Deutschland
!!!SCT: A0307
!!!YEM: Copyright 1995, estate of Helmut Schaffrath.
**kern
*ICvox
*Ivox
*M3/2
*k[b-]
*F:
{2ff
2ee
2dd
=1
1cc
2a
=2
2b-
2cc
2dd
=3
1cc}
{2ff
=4
2.ff
4ee
2dd
=5
1cc
2dd
=6
2ee
2ff
2ee
=7
1ff
2r}
=8
{2dd
2cc
2cc
=9
1a
2r
=10
2dd
2cc
2cc
=11
1a
2b-
=12
1g}
{2a
=13
2f
4ff
4ee
4dd
4cc
=14
2bn
2cc
2bn
=15
1cc
2r}
=16
{2cc
2ee
2ff
=17
1dd
2ee
=18
2cc
4dd
4ee
2ff
=19
1.ee}
=20
{2.ff
4ee
2dd
=21
1cc
2dd
=22
2g
2f
2g
=23
1.a}
=24
{2cc
2ee
2ff
=25
1dd
2ee
=26
2cc
4dd
4ee
2ff
=27
1.ee}
=28
{2.ff
4ee
2dd
=29
1cc
2dd
=30
2g
2f
2g
=31
1.a}
==
!!!AGN: Romanze, Ballade, Lied
!! Harnisch, Newe lustige teudsche Liedlein mit drei Stimmen.
!!    Helmstedt 1591 No. 23.
!!!ONB: ESAC (Essen Associative Code) Database: ALTDEU
!!!AMT: simple triple
!!!AIN: vox
!!!EED: Helmut Schaffrath
!!!EEV: 1.0
*-
